web/themes/custom/dewert_theme/styleguide/images/icons/icn-warning.svg

<svg xmlns="http://www.w3.org/2000/svg" width="20" height="20" viewBox="0 0 20 20">
  <path fill="#F3A530" fill-rule="evenodd" d="M10,20 C15.523,20 20,15.523 20,10 C20,4.477 15.523,0 10,0 C4.477,0 0,4.477 0,10 C0,15.523 4.477,20 10,20 Z M12.714,14.286 L12.714,15.429 C12.7149281,15.580365 12.6534328,15.7254215 12.544,15.83 C12.4394215,15.9394328 12.294365,16.0009281 12.143,16 L7.57,16 C7.41863504,16.0009281 7.27357855,15.9394328 7.169,15.83 C7.05956719,15.7254215 6.99807192,15.580365 6.999,15.429 L6.999,14.286 C6.99779578,14.1342884 7.05931332,13.9888175 7.169,13.884 C7.27357855,13.7745672 7.41863504,13.7130719 7.57,13.714 L8.142,13.714 L8.142,10.286 L7.57,10.286 C7.41863504,10.2869281 7.27357855,10.2254328 7.169,10.116 C7.05931332,10.0111825 6.99779578,9.86571164 6.999,9.714 L6.999,8.571 C6.99807192,8.41963504 7.05956719,8.27457855 7.169,8.17 C7.27357855,8.06056719 7.41863504,7.99907192 7.57,8 L11,8 C11.1517116,7.99879578 11.2971825,8.06031332 11.402,8.17 C11.5114328,8.27457855 11.5729281,8.41963504 11.572,8.571 L11.572,13.714 L12.142,13.714 C12.2940582,13.7125188 12.4399439,13.7740587 12.545,13.884 C12.6546867,13.9888175 12.7162042,14.1342884 12.715,14.286 L12.714,14.286 Z M11.571,4 L11.571,5.714 C11.5722042,5.86571164 11.5106867,6.01118253 11.401,6.116 C11.2964215,6.22543281 11.151365,6.28692808 11,6.286 L8.714,6.286 C8.56228836,6.28720422 8.41681747,6.22568668 8.312,6.116 C8.20231332,6.01118253 8.14079578,5.86571164 8.142,5.714 L8.142,4 C8.14079578,3.84828836 8.20231332,3.70281747 8.312,3.598 C8.41681747,3.48831332 8.56228836,3.42679578 8.714,3.428 L11,3.428 C11.1517116,3.42679578 11.2971825,3.48831332 11.402,3.598 C11.5116867,3.70281747 11.5732042,3.84828836 11.572,4 L11.571,4 Z"/>
</svg>

<svg xmlns="http://www.w3.org/2000/svg" width="20" height="20" viewBox="0 0 20 20"><path fill="#FFF" fill-rule="evenodd" d="M10 20c5.523 0 10-4.477 10-10S15.523 0 10 0 0 4.477 0 10s4.477 10 10 10zm2.714-5.714v1.143a.55.55 0 0 1-.17.401.55.55 0 0 1-.401.17H7.57a.55.55 0 0 1-.401-.17.55.55 0 0 1-.17-.401v-1.143a.55.55 0 0 1 .17-.402.55.55 0 0 1 .401-.17h.572v-3.428H7.57a.55.55 0 0 1-.401-.17.55.55 0 0 1-.17-.402V8.571a.55.55 0 0 1 .17-.401A.55.55 0 0 1 7.57 8H11a.55.55 0 0 1 .402.17.55.55 0 0 1 .17.401v5.143h.57a.55.55 0 0 1 .403.17.55.55 0 0 1 .17.402zM11.571 4v1.714a.55.55 0 0 1-.17.402.55.55 0 0 1-.401.17H8.714a.55.55 0 0 1-.402-.17.55.55 0 0 1-.17-.402V4a.55.55 0 0 1 .17-.402.55.55 0 0 1 .402-.17H11a.55.55 0 0 1 .402.17.55.55 0 0 1 .17.402z"/></svg>
